X: 68
T: No_162_The_Sound_of_His_Footsteps.krn
%%abc-version 2.0
%%abcx-abcm2ps-target-version 5.9.1 (29 Sep 2008)
%%abc-creator hum2abc beta
%%abcx-conversion-date 2020/08/10 18:54:57
%%gracespace 0 6 6
%%humdrum-veritas 3066864085
%%humdrum-veritas-data 253493254
%%linebreak <none>
%%barnumbers 0
L: 1/4
M: 3/8
%%staves {1 2}
V: 1 clef=bass
V: 2 clef=bass
K: Eb
[V:1] [K:clef=bass][M:3/8]EB,/ | 
[V:2] [K:clef=bass][M:3/8]!accent!G,,/ z// G,,//!accent!G,,/ | 
[V:1] EF/ | 
[V:2] z// G,,//!accent!G,,/ z// G,,// | 
[V:1] E/E ||  
[V:2] z3/ ||  
[V:1] [M:2/8]F/E/ ||  
[V:2] [M:2/8]z ||  
[V:1] [M:3/8]E/B, | 
[V:2] [M:3/8]z3/ | 
[V:1] B,F,/ | 
[V:2] z3/ | 
[V:1] B,E/ | 
[V:2] z3/ | 
[V:1] B,/B, ||  
[V:2] z3/ ||  
[V:1] [M:2/8]E ||  
[V:2] [M:2/8]z ||  
[V:1] [M:3/8]B,/F, | 
[V:2] [M:3/8]z3/ | 
[V:1] F,E,/ | 
[V:2] z3/ | 
[V:1] F,B,/ | 
[V:2] z3/ | 
[V:1] F,/F, ||  
[V:2] z3/ ||  
[V:1] [M:2/8]G,/G,/ ||  
[V:2] [M:2/8]z ||  
[V:1] [M:3/8]F,/E, | 
[V:2] [M:3/8]z3/ | 
[V:1] E,B,,/ | 
[V:2] z3/ | 
[V:1] E,F,/ | 
[V:2] z3/ | 
[V:1] E,/E, | 
[V:2] z3/ | 
[V:1] E,/E, | 
[V:2] z3/ | 
[V:1] B,,3/ | 
[V:2] z3/ | 
[V:1] B,,3/ ||  
[V:2] z3/ ||  
[V:1] [M:2/8]B,/B,/ | 
[V:2] [M:2/8]z | 
[V:1] B,3//F,// ||  
[V:2] z ||  
[V:1] [M:3/8]B,/B,/E/8E/8 ||  
[V:2] [M:3/8]z3/ ||  
[V:1] [M:2/8]G,/G,/ | 
[V:2] [M:2/8]z | 
[V:1] E ||  
[V:2] z ||  
[V:1] [M:3/8]B,F,/ | 
[V:2] [M:3/8]z3/ | 
[V:1] F,E,/ | 
[V:2] z3/ | 
[V:1] F,B,/ | 
[V:2] z3/ | 
[V:1] F,/F, ||  
[V:2] z3/ ||  
[V:1] [M:2/8]G,/G,/ ||  
[V:2] [M:2/8]z ||  
[V:1] [M:3/8]F,/E, | 
[V:2] [M:3/8]z3/ | 
[V:1] E,B,,/ | 
[V:2] z3/ | 
[V:1] E,F,/ | 
[V:2] z3/ | 
[V:1] E,/E, | 
[V:2] z3/ | 
[V:1] B,,3/ | 
[V:2] z3/ | 
[V:1] B,,3/ |]  
[V:2] z3/ |]  


